!!!!SEGMENT: pl-gd--ee-1638--007-011_marenzio-luca--il-terzo-libro-de-madrigalia-a-sei-voci-io-che-forma.krn
!!!cenid: 15xx:852
!!!COM: Marenzio, Luca
!!!COM-rismid: pe30003955
!!!CDT: ~1553-1599/08/22
!!!CNT: Italian
!!!GTL: Il Terzo Libro de madrigalia a sei voci
!!!OTL: Io che forma
!!!OMV: 011
!!!PDT: 1585
!!!AGN:
!!!SMS-siglum: PL-GD
!!!SMS-shelfmark: Ee 1638
!!!SMS-variant:
!!!SMS-altvar:
!!!SMS-shelfwork: 007-011 G
!!!NIFC-rismid: 990039250
!!!URL-scan: https://repozytorium.nifc.pl/islandora/object/pl-gd%3A57883/datastream/PDF/view
!!!ONB-nifc: UWAGA: zbiór na stronach: Canto: s. 694-704, Alto: s. 542-552, Tenore: s. 390-400, Basso: s. 237-248, Quinto: s. 85-96, Sesto: s. 3-14. Uwaga: utwory podzielone wg tytułów w spisach treści dostępnych na końcu każdej księgi głosowej.
!!!AIN: 1 alto 1 bass 1 canto 1 quinto 1 sesto 1 tenor
!!!key:
**kern	**text	**kern	**text	**kern	**text	**kern	**text	**kern	**text	**kern	**text
*part6	*part6	*part5	*part5	*part4	*part4	*part3	*part3	*part2	*part2	*part1	*part1
*staff6	*staff6	*staff5	*staff5	*staff4	*staff4	*staff3	*staff3	*staff2	*staff2	*staff1	*staff1
*I"SESTO	*	*I"QUINTO	*	*I"BASSO	*	*I"TENORE	*	*I"ALTO	*	*I"CANTO	*
*I'voce umana 2	*	*I'voce umana 1	*	*I'B	*	*I'T	*	*I'A	*	*I'S	*
*Isesto	*	*Iquinto	*	*Ibass	*	*Itenor	*	*Ialto	*	*Icanto	*
*ICvox	*	*ICvox	*	*ICvox	*	*ICvox	*	*ICvox	*	*ICvox	*
*IG	*	*	*	*	*	*	*	*	*	*	*
*clefC3	*	*clefG2	*	*clefF3	*	*clefC3	*	*clefC2	*	*clefG2	*
*k[]	*	*k[]	*	*k[]	*	*k[]	*	*k[]	*	*k[]	*
*d:	*	*d:	*	*d:	*	*d:	*	*d:	*	*d:	*
*M2/1	*	*M2/1	*	*M2/1	*	*M2/1	*	*M2/1	*	*M2/1	*
=1-	=1-	=1-	=1-	=1-	=1-	=1-	=1-	=1-	=1-	=1-	=1-
!LO:TX:a:t=Seconda parte	!	!	!	!	!	!	!	!	!	!	!
*met(C)	*	*met(C)	*	*met(C)	*	*	*	*	*	*	*
!	!	!	!	!LO:TX:a:t=Seconda parte	!	!	!	!	!	!	!
*	*	*	*	*	*	*met(C)	*	*	*	*	*
!	!	!	!	!	!	!LO:TX:b:t=Io che forma	!	!	!	!	!
!	!	!	!	!	!	!LO:TX:a:t=Seconda parte	!	!	!	!	!
*	*	*	*	*	*	*	*	*met(C)	*	*	*
!	!	!	!	!	!	!	!	!LO:TX:a:t=Seconda parte	!	!	!
*	*	*	*	*	*	*	*	*	*	*met(C)	*
!	!	!	!	!	!	!	!	!	!	!LO:TX:a:t=Seconda parte	!
0r	.	1cc#X	Io	1A	Io	0r	.	1a	Io	1ee	Io
.	.	2cc#\	che	2A\	che	.	.	2a\	che	2ee\	che
.	.	2.dd\	for-	2.d\	for-	.	.	2.a\	for-	2.ff#X\	for-
=2-	=2-	=2-	=2-	=2-	=2-	=2-	=2-	=2-	=2-	=2-	=2-
0r	.	.	.	.	.	0r	.	.	.	.	.
.	.	4dd\	-ma	4d\	-ma	.	.	4a\	-ma	4ff#y\	-ma
.	.	2dd\	ce`eſ-	2B\	ce`eſ-	.	.	2d/	ce`eſ-	2gg\	ce-
.	.	2ccny\	-te	2c\	-te	.	.	2g\	-te	2ee\	-leſ-
.	.	4b/	in	4G\	in	.	.	4g\	in	4dd\	-t`in
.	.	2a/	ter-	2d\	ter-	.	.	2f\	ter-	2ffny\	ter-
=3-	=3-	=3-	=3-	=3-	=3-	=3-	=3-	=3-	=3-	=3-	=3-
0r	.	.	.	.	.	0r	.	.	.	.	.
.	.	4a/	-ra	4A\	-ra	.	.	4c/	-ra	4ee\	-ra
.	.	4f/	ſcor-	2B-X\	ſcor-	.	.	2d/	ſcor-	1dd	ſcor-
.	.	4g/	.	.	.	.	.	.	.	.	.
.	.	1a	ſi	1A	ſi	.	.	1e	ſi	.	.
.	.	.	.	.	.	.	.	.	.	2cc#X\	ſi
=4-	=4-	=4-	=4-	=4-	=4-	=4-	=4-	=4-	=4-	=4-	=4-
*col	*	*col	*	*col	*	*col	*	*col	*	*col	*
3d\	Rin-	3a/	Rin-	3D/	Rin-	3A/	Rin-	3f\	Rin-	3dd\	Rin-
3d\	-chiu-	3a/	-chiu-	3D/	-chiu-	3A/	-chiu-	3f\	-chiu-	3dd\	-chiu-
!	!	!	!	!LO:SIC:v:t=custos C	!	!	!	!	!	!	!
3f\	ſi i	3a/	ſi i	3D/	ſi i	3F/	ſi i	3d/	ſi i	3dd\	ſi i
!	!	!LO:LB:g=original	!	!LO:LB:g=original	!	!	!	!	!	!	!
3%2e	lu-	3%2cc	lu-	3%2C	lu-	3%2G	lu-	3%2g	lu-	3%2ee	lu-
!	!	!	!	!	!	!	!	!LO:SIC:v:t=custos b	!	!	!
!	!	!	!	!	!	!	!	!	!	!LO:SIC:v:t=custos ff	!
3e\	-mi e	3cc\	-mi e	3C/	-mi e	3c\	-mi e	3g\	-mi e	3ee\	-mi e
!	!	!	!	!	!	!	!	!LO:LB:g=original	!	!LO:LB:g=original	!
*Xcol	*	*Xcol	*	*Xcol	*	*Xcol	*	*Xcol	*	*Xcol	*
=5-	=5-	=5-	=5-	=5-	=5-	=5-	=5-	=5-	=5-	=5-	=5-
1d	diſ-	1dd	diſ-	1BB-X	diſ-	1F	diſ-	1b-X	diſ-	1ff	diſ-
1d	-si	1dd	-si	1BB-	-si	1F	-si	1f	-si	1ff	-si
=6-	=6-	=6-	=6-	=6-	=6-	=6-	=6-	=6-	=6-	=6-	=6-
2r	.	2r	.	0r	.	2r	.	0r	.	2r	.
1a	Ahi	1ff	Ahi	.	.	1f	Ahi	.	.	1ccny	Ahi
4g\	co-	4ee\	co-	.	.	4c/	co-	.	.	4cc\	co-
!LO:SIC:v:t=custos e	!	!	!	!	!	!LO:SIC:v:t=custos A	!	!	!	!	!
4f\	-me è	4dd\	-me è	.	.	4d\	-me è	.	.	4a/	-me e
!LO:LB:g=original	!	!	!	!	!	!LO:LB:g=original	!	!	!	!	!
=7-	=7-	=7-	=7-	=7-	=7-	=7-	=7-	=7-	=7-	=7-	=7-
4e\	ſtol-	4cc#X\	ſtol-	0r	.	4A/	ſtol-	1r	.	4a/	ſtol-
4g\	-to	4dd\	-to	.	.	4G/	-to	.	.	4b/	-to
1g	ſguar-	1ee	ſguar-	.	.	1c	Sguar-	.	.	1cc	Sguar-
.	.	.	.	.	.	.	.	2r	.	.	.
2g\	-do	2ee\	-do	.	.	2c/	-do	4r	.	2cc\	-do
.	.	.	.	.	.	.	.	4g\	che`n	.	.
=8-	=8-	=8-	=8-	=8-	=8-	=8-	=8-	=8-	=8-	=8-	=8-
0r	.	4ee\	che`n	0r	.	4A/	che`n	2.a\	lei	4cc#X\	che`n
.	.	2ff#X\	lei	.	.	2d\	lei	.	.	2dd\	lei
.	.	4gg\	ſia	.	.	4G/	ſia	4bny\	ſia	4dd\	ſia
.	.	4.gg\	d`aſ-	.	.	4.c/	d`aſ-	4.cc\	d`aſ-	4.ee\	d`aſ-
.	.	8gg\	-ſiar-	.	.	8c/	-ſi-	8cc\	-ſi-	8ee\	-ſi-
.	.	4gg\	-ſi	.	.	4c/	-far	4cc\	-far	4ee\	-far
!	!	!LO:SIC:v:t=custos A	!	!	!	!	!	!	!	!	!
.	.	4ff#\	s`ar-	.	.	4d\	s`ar-	4a\	s`ar-	2dd\	s`ar-
!	!	!LO:LB:g=original	!	!	!	!	!	!	!	!	!
=9-	=9-	=9-	=9-	=9-	=9-	=9-	=9-	=9-	=9-	=9-	=9-
1r	.	1ee	-di-	1r	.	1A	-di-	1a	-di-	.	.
.	.	.	.	.	.	.	.	.	.	8cc#X\	-di-
!	!	!	!	!	!	!	!	!	!	!LO:SIC:v:t=custos cc	!
.	.	.	.	.	.	.	.	.	.	8b\	.
!	!	!	!	!	!	!	!	!	!	!LO:LB:g=original	!
.	.	.	.	.	.	.	.	.	.	2cc#X\	-di-
4r	.	2ff#X\	-to	2r	.	1d	-to	1a	-to	1dd	-to
2a\	Ma-	.	.	.	.	.	.	.	.	.	.
.	.	4r	.	2d\	Ma-	.	.	.	.	.	.
4f#X\	-de	4dd\	Ma-	.	.	.	.	.	.	.	.
=10-	=10-	=10-	=10-	=10-	=10-	=10-	=10-	=10-	=10-	=10-	=10-
4.g\	l`al-	4dd\	-de	4Bny\	-de	1r	.	0r	.	1r	.
.	.	4.ee\	l`al-	4.c\	l`al-	.	.	.	.	.	.
8g\	-tro	.	.	.	.	.	.	.	.	.	.
4e\	pe-	.	.	.	.	.	.	.	.	.	.
.	.	8ee\	-tro	8c\	-tro	.	.	.	.	.	.
2g\	-ri-	4dd\	pe-	4B\	pe-	.	.	.	.	.	.
.	.	2ccny\	-ri-	2A\	-ri-	4r	.	.	.	2r	.
4f#X\	.	.	.	.	.	4c/	non	.	.	.	.
2g\	-glio	2b/	-glio	2G\	-glio	4d\	m`ac-	.	.	4r	.
.	.	.	.	.	.	2e\	-cor-	.	.	4gg\	Ma-
=11-	=11-	=11-	=11-	=11-	=11-	=11-	=11-	=11-	=11-	=11-	=11-
2r	.	2r	.	2A\	non	.	.	1r	.	4ee\	-de
.	.	.	.	.	.	8d\	.	.	.	4.ff\	l`al-
.	.	.	.	.	.	8c/	.	.	.	.	.
4r	.	2g/	non	4B\	m`ac-	4d\	.	.	.	.	.
.	.	.	.	.	.	.	.	.	.	8ff\	-tro
4e\	non	.	.	2c\	-cor-	4g\	-ſi	.	.	4ee\	pe-
!	!	!	!	!	!	!LO:SIC:v:t=custos g	!	!	!	!	!
4fny\	m`ac-	4a/	m`ac-	.	.	1r	.	4r	.	2dd\	-rig-
!	!	!	!	!	!	!LO:LB:g=original	!	!	!	!	!
2g\	-cor-	2b/	-cor-	4B\	-ſi	.	.	4d/	Ma-	.	.
.	.	.	.	2r	.	.	.	4e/	-de	4g/	-lio
4d\	-ſi	4a/	-ſi	.	.	.	.	4.f\	l`al-	4dd\	non
=12-	=12-	=12-	=12-	=12-	=12-	=12-	=12-	=12-	=12-	=12-	=12-
!	!	!	!	!LO:SIC:v:t=custos E	!	!	!	!	!	!	!
1r	.	2r	.	1G	Ma-	1g	Ma-	.	.	4b/	m`ac-
!	!	!	!	!LO:LB:g=original	!	!	!	!	!	!	!
.	.	.	.	.	.	.	.	8f\	-tro	.	.
.	.	.	.	.	.	.	.	4e/	per-	2ccny\	-cor-
!	!	!	!	!	!	!	!	!LO:SIC:v:t=custos c	!	!	!
.	.	2dd\	Ma-	.	.	.	.	2d/	-gli-	.	.
!	!	!	!	!	!	!	!	!LO:LB:g=original	!	!	!
.	.	.	.	.	.	.	.	.	.	4b/	-ſi
2r	.	4ee\	-de	4E/	-de	4g\	-de	1c	-o	1r	.
.	.	4.cc\	l`al-	4.F/	l`al-	4.a\	l`al-	.	.	.	.
*	*ij	*	*	*	*	*	*	*	*	*	*
2A/	non	.	.	.	.	.	.	.	.	.	.
.	.	8cc\	-tro	8F/	-tro	8a\	-tro	.	.	.	.
!	!	!LO:SIC:v:t=custos dd	!	!	!	!	!	!	!	!	!
.	.	4cc\	per-	4E/	per-	4g\	per-	.	.	.	.
!	!	!LO:LB:g=original	!	!	!	!	!	!	!	!	!
=13-	=13-	=13-	=13-	=13-	=13-	=13-	=13-	=13-	=13-	=13-	=13-
!LO:SIC:v:t=custos c	!	!	!	!	!	!	!	!	!	!	!
4B/	m`ac-	1dd	-gli-	1D	-gli-	1f	-gli-	1r	.	2r	.
!LO:LB:g=original	!	!	!	!	!	!	!	!	!	!	!
2c/	-cor-	.	.	.	.	.	.	.	.	.	.
.	.	.	.	.	.	.	.	.	.	4r	.
4B/	-ſi	.	.	.	.	.	.	.	.	4dd\	Ma
*	*Xij	*	*	*	*	*	*	*	*	*	*
1r	.	4g/	-o	2C/	-o	2e\	-o	2r	.	4ee\	de
.	.	4cc\	non	.	.	.	.	.	.	4.gg\	l`al-
.	.	4a/	m`ac-	2D/	non	2r	.	2d/	Ma-	.	.
.	.	.	.	.	.	.	.	.	.	8ff\	-tro
!	!	!	!	!	!	!	!	!	!	!LO:SIC:v:t=custos ee	!
.	.	2b/	-cor-	.	.	.	.	.	.	4ff\	pe-
!	!	!	!	!	!	!	!	!	!	!LO:LB:g=original	!
=14-	=14-	=14-	=14-	=14-	=14-	=14-	=14-	=14-	=14-	=14-	=14-
4r	.	.	.	4E/	m`ac-	2r	.	4g\	-de	8ee\	-ri-
.	.	.	.	.	.	.	.	.	.	8dd\	.
4c/	non	4a/	-ſi	2F/	-cor-	.	.	4.a\	l`al-	8cc\	.
.	.	.	.	.	.	.	.	.	.	8b\	.
4d\	m`ac-	4r	.	.	.	4r	.	.	.	4a/	.
.	.	.	.	.	.	.	.	8a\	-tro	.	.
2e\	-cor-	4b/	non	4E/	-ſi	4g\	non	2g\	pe-	4ee\	-glio
.	.	4cc\	m`ac-	4r	.	4e\	m`ac-	.	.	4r	.
4d\	-ſi	2dd\	-cor-	4F/	non	2f\	-cor-	8f\	-ri-	4a/	non
.	.	.	.	.	.	.	.	8e/	.	.	.
4r	.	.	.	4G\	m`ac-	.	.	4d/	.	4b/	m`ac-
*	*ij	*	*	*	*	*	*	*	*	*	*
4e\	non	4cc\	-ſi	2A\	-cor-	4e\	-ſi	4a\	-glio	2cc\	-cor
=15-	=15-	=15-	=15-	=15-	=15-	=15-	=15-	=15-	=15-	=15-	=15-
4f#X\	m`ac-	4r	.	.	.	4A/	non	2r	.	.	.
*	*	*	*ij	*	*	*	*	*	*	*	*
2g\	-cor-	4dd\	non	4G\	-ſi	4B/	m`ac-	.	.	4b/	-ſi
.	.	4ee\	m`ac-	4r	.	2c/	-cor-	4cc\	non	4r	.
*	*	*	*	*	*ij	*	*	*	*	*	*ij
4c/	-ſi	2ffny\	-cor-	4A\	non	.	.	4a\	m`ac-	4cc\	non
*	*Xij	*	*	*	*	*	*	*	*	*	*
1r	.	.	.	4B\	m`ac-	1G	-ſi	2g\	-cor-	4dd\	m`ac-
.	.	4ee\	-ſi	2c\	-cor-	.	.	.	.	2ee\	-cor-
.	.	2r	.	.	.	.	.	2g\	-ſi	.	.
.	.	.	.	4B\	-ſi	.	.	.	.	4dd\	-ſi
*	*	*	*Xij	*	*Xij	*	*	*	*	*	*Xij
=16-	=16-	=16-	=16-	=16-	=16-	=16-	=16-	=16-	=16-	=16-	=16-
2r	.	0r	.	2r	.	2r	.	2r	.	0r	.
1e	Che	.	.	1A	che	1c	che	1a	che	.	.
!	!	!	!	!LO:SIC:v:t=custos F	!	!LO:SIC:v:t=custos f	!	!	!	!	!
2g\	mi	.	.	2G\	mi	2d\	mi	2b\	mi	.	.
!	!	!	!	!LO:LB:g=original	!	!LO:LB:g=original	!	!	!	!	!
=17-	=17-	=17-	=17-	=17-	=17-	=17-	=17-	=17-	=17-	=17-	=17-
1a	fù	2r	.	4F\	fù	4f\	fù	1cc	fù	2r	.
.	.	.	.	8c\	per	8e\	per	.	.	.	.
.	.	.	.	8B\	l`o-	8d\	l`o-	.	.	.	.
.	.	1a	Che	4A\	-rec-	4c/	-rec-	.	.	1cc	Che
.	.	.	.	4G\	-ch`il	4B/	-ch`il	.	.	.	.
1r	.	.	.	4F/	cor	4A/	cor	1r	.	.	.
.	.	.	.	4E/	fe-	4G/	fe-	.	.	.	.
.	.	2b/	mi	2D/	-ri-	2F/	-ri-	.	.	2dd\	mi
=18-	=18-	=18-	=18-	=18-	=18-	=18-	=18-	=18-	=18-	=18-	=18-
2r	.	4cc\	fù	1C	-to	1G	-to	2r	.	4ee\	fù
.	.	8ee\	per	.	.	.	.	.	.	8gg\	per
!	!	!LO:SIC:v:t=custos cc	!	!	!	!	!	!	!	!LO:SIC:v:t=custos ee	!
.	.	8dd\	l`o-	.	.	.	.	.	.	8ff\	l`o-
!	!	!LO:LB:g=original	!	!	!	!	!	!	!	!LO:LB:g=original	!
!	!	!	!	!	!	!	!	!LO:SIC:v:t=custos f	!	!	!
1c	Che	4cc\	-rec-	.	.	.	.	1e	Che	4ee\	-rec-
!	!	!	!	!	!	!	!	!LO:LB:g=original	!	!	!
.	.	4b/	-ch`il	.	.	.	.	.	.	4dd\	-ch`il
.	.	4a/	cor	1r	.	1r	.	.	.	4cc\	cor
.	.	4g/	fe-	.	.	.	.	.	.	4b\	fe-
2d\	mi	2f/	-ri-	.	.	.	.	2f\	mi	2a/	-ri-
=19-	=19-	=19-	=19-	=19-	=19-	=19-	=19-	=19-	=19-	=19-	=19-
4e\	fu	2e/	-to	0r	.	0r	.	4g\	fù	1g	-to
8g\	per	.	.	.	.	.	.	8b\	per	.	.
!LO:SIC:v:t=custos e	!	!	!	!	!	!	!	!	!	!	!
8fny\	l`o-	.	.	.	.	.	.	8a\	l`o-	.	.
!LO:LB:g=original	!	!	!	!	!	!	!	!	!	!	!
4e\	-rec-	1ee	Che	.	.	.	.	4g\	-rec-	.	.
4d\	-ch`il	.	.	.	.	.	.	4f\	-ch`il	.	.
4c/	cor	.	.	.	.	.	.	4e/	cor	2g/	Che
4B/	fe-	.	.	.	.	.	.	4d/	fe-	.	.
2A/	-ri-	2ff#X\	mi	.	.	.	.	2c/	-ri-	2a/	mi
=20-	=20-	=20-	=20-	=20-	=20-	=20-	=20-	=20-	=20-	=20-	=20-
2G/	-to	4gg\	fu	0r	.	0r	.	4d/	-to	4b/	fù
.	.	8ee\	per	.	.	.	.	4g\	il	8gg\	per
.	.	8dd\	l`orc-	.	.	.	.	.	.	8ff\	l`o-
4r	.	4cc\	-chil	.	.	.	.	4a\	cor	4ee\	-rec-
4G/	il	4b\	cor	.	.	.	.	4b\	fe-	4dd\	-ch`il
4A/	cor	4a/	fe-	.	.	.	.	4cc\	-ri-	4cc\	cor
4B/	fe-	2g/	-ri-	.	.	.	.	4dd\	-to	4b\	fe-
4c/	-ri-	.	.	.	.	.	.	2r	.	2a/	-ri-
4d\	.	4f#X/	-to	.	.	.	.	.	.	.	.
=21-	=21-	=21-	=21-	=21-	=21-	=21-	=21-	=21-	=21-	=21-	=21-
2G/	-to	2g/	.	4r	.	4r	.	1r	.	2b/	-to
.	.	.	.	4G\	Ei	4g\	Ei	.	.	.	.
2r	.	2r	.	4A\	det-	4c\	det-	.	.	2r	.
.	.	.	.	4B\	-t`an-	4d\	-t`an-	.	.	.	.
1r	.	4r	.	2c\	-da-	2e\	-da-	4r	.	1r	.
.	.	4gg\	Ei	.	.	.	.	4g\	Ei	.	.
.	.	4cc\	det-	2c\	-ro	2e\	-ro	4a\	det-	.	.
!	!	!LO:SIC:v:t=custos ee	!	!	!	!	!	!LO:SIC:v:t=custos cc	!	!	!
.	.	4dd\	-t`an-	.	.	.	.	4b\	-t`an-	.	.
!	!	!LO:LB:g=original	!	!	!	!	!	!LO:LB:g=original	!	!	!
=22-	=22-	=22-	=22-	=22-	=22-	=22-	=22-	=22-	=22-	=22-	=22-
4r	.	2ee\	-da-	4r	.	4r	.	2cc\	-da-	4r	.
2g\	o-	.	.	2c\	o-	2e\	o-	.	.	2gg\	o-
.	.	2ee\	-ro	.	.	.	.	2cc\	-ro	.	.
4g\	-ue	.	.	4c\	-ue	4e\	-ue	.	.	4gg\	-ue
!	!	!	!	!	!	!	!	!	!	!LO:SIC:v:t=custos ff	!
2g\	no	4r	.	1c	non	1e	non	4r	.	1ee	non
!	!	!	!	!	!	!	!	!	!	!LO:LB:g=original	!
.	.	2cc\	o-	.	.	.	.	2g\	o-	.	.
1c\	giun-	.	.	.	.	.	.	.	.	.	.
.	.	4cc\	-ue	.	.	.	.	4g\	-ue	.	.
=23-	=23-	=23-	=23-	=23-	=23-	=23-	=23-	=23-	=23-	=23-	=23-
.	.	1cc	non	1.F	giun-	2A/	giun-	1a	non	1ff	giun-
!	!	!	!	!	!	!LO:SIC:v:t=custos a	!	!	!	!	!
2A/	-s`in	.	.	.	.	1f	-s`in	.	.	.	.
!	!	!	!	!	!	!LO:LB:g=original	!	!	!	!	!
0A	vol-	2ffny\	giun-	.	.	.	.	2a\	giun-	2cc\	-s`in
!	!	!	!	!LO:SIC:v:t=custos A	!	!	!	!	!	!	!
.	.	2ff\	-s`in	2D/	-s`in	2.a\	vol-	2f\	-s`in	1dd\	vol-
!	!	!	!	!LO:LB:g=original	!	!	!	!	!	!	!
=24-	=24-	=24-	=24-	=24-	=24-	=24-	=24-	=24-	=24-	=24-	=24-
.	.	1ee	vol-	1A	vol-	.	.	1a	vol-	.	.
.	.	.	.	.	.	8g\	.	.	.	.	.
.	.	.	.	.	.	8f\	.	.	.	.	.
.	.	.	.	.	.	2e\	.	.	.	2cc#X\	-to
2A/	-to	2ff#X\	-to	2D/	-to	2d\	-to	4a\	-to	4r	.
.	.	.	.	.	.	.	.	4d/	et	4dd\	Ei
2r	.	2r	.	2r	.	2r	.	4e/	det-	4g/	det-
.	.	.	.	.	.	.	.	4f#X\	-t`an-	4a/	-t`an-
=25-	=25-	=25-	=25-	=25-	=25-	=25-	=25-	=25-	=25-	=25-	=25-
!LO:SIC:v:t=custos g	!	!	!	!	!	!	!	!	!	!	!
0r	.	1r	.	4r	.	4r	.	4g\	-da-	4b/	-da-
!LO:LB:g=original	!	!	!	!	!	!	!	!	!	!	!
.	.	.	.	4G\	ei	4g\	ei	4d/	-ro	4b/	-ro
.	.	.	.	4A\	det-	4c\	det-	2r	.	2r	.
.	.	.	.	4B\	-t`an-	4d\	-t`an-	.	.	.	.
.	.	4r	.	2c\	-da-	2e\	-da-	4r	.	1r	.
.	.	4gg\	ei	.	.	.	.	4g\	e	.	.
.	.	4cc\	det-	2c\	-ro	2e\	-ro	4a\	det-	.	.
.	.	4dd\	-t`an-	.	.	.	.	4b\	-t`an-	.	.
=26-	=26-	=26-	=26-	=26-	=26-	=26-	=26-	=26-	=26-	=26-	=26-
4r	.	2ee\	-da-	4r	.	4r	.	2cc\	-da-	4r	.
2g\	o-	.	.	2c\	o-	2e\	o-	.	.	2gg\	o-
!	!	!	!	!	!	!	!	!LO:SIC:v:t=custos g	!	!	!
.	.	2ee\	-ro	.	.	.	.	2cc\	-ro	.	.
!	!	!	!	!	!	!	!	!LO:LB:g=original	!	!	!
4g\	-ue	.	.	4c\	-ue	4e\	-ue	.	.	4gg\	-ue
!	!	!	!	!	!	!	!	!LO:TX:t=P:problem:pauza 2 najprawdopodobniej błędnie	!	!	!
2g\	non	4r	.	1c	non	1e	non	4r	.	1ee	non
.	.	2cc\	o-	.	.	.	.	2g\	o-	.	.
1c\	giun-	.	.	.	.	.	.	.	.	.	.
.	.	4cc\	-ue	.	.	.	.	4g\	-ue	.	.
=27-	=27-	=27-	=27-	=27-	=27-	=27-	=27-	=27-	=27-	=27-	=27-
!	!	!LO:SIC:v:t=custos ff	!	!	!	!	!	!	!	!	!
.	.	1cc	non	1.F	giun-	2A/	.	1a	non	1ff	giun-
!	!	!LO:LB:g=original	!	!	!	!	!	!	!	!	!
2A/	-s`in	.	.	.	.	1f	.	.	.	.	.
0A	vol-	2ffny\	giun-	.	.	.	.	2a\	giun-	2ccny\	-s`in
.	.	2ff\	-s`in	2D/	-s`in	2.a\	.	2fny\	-s`in	2.dd\	vol-
=28-	=28-	=28-	=28-	=28-	=28-	=28-	=28-	=28-	=28-	=28-	=28-
.	.	1ee	vol-	1A	vol-	.	.	1a	vol-	.	.
.	.	.	.	.	.	8g\	.	.	.	8cc#X\	.
.	.	.	.	.	.	8f\	.	.	.	8b\	.
.	.	.	.	.	.	2e\	.	.	.	2cc#X\	.
0.A	-to.	0.ff#X	-to.	0.D	-to.	0.d	.	0.a	-to.	0.dd	-to.
=29-	=29-	=29-	=29-	=29-	=29-	=29-	=29-	=29-	=29-	=29-	=29-
.	.	.	.	.	.	.	.	.	.	.	.
=-	=-	=-	=-	=-	=-	=-	=-	=-	=-	=-	=-
*-	*-	*-	*-	*-	*-	*-	*-	*-	*-	*-	*-
!!!system-decoration: [(s1,s2,s3,s4,s5,s6)]
!!!ENC: Filip Voros
!!!END: 2022-06-14
!!!ENC: Julita Ruszuk
!!!END: 2022-07-23
